X: 1
T: Prelude in C Minor, Op. 28, No. 1
C: Frederic Chopin
%%abc-version 2.0
%%abcx-abcm2ps-target-version 5.9.1 (29 Sep 2008)
%%abc-creator hum2abc beta
%%abcx-conversion-date 2021/01/25 16:34:28
%%abc-copyright Copyright 2008 by Craig Stuart Sapp
%%abc-edited-by Craig Stuart Sapp
%%gracespace 0 6 6
%%humdrum-veritas 107243351
%%humdrum-veritas-data 3898065574
%%linebreak <none>
%%barnumbers 0
L: 1/16
M: 2/8
N: Derived from prelude28-01.krn
Q: "Agitato" 1/8=160
%%staves [1 2 3 4]
V: 1 clef=treble
V: 2 clef=treble
V: 3 clef=bass
V: 4 clef=bass
K: C
[V:1] (3:2:5z G,C G2A | 
[V:2] z2 (3ECA, | 
[V:3] (3z G,4 A, | 
[V:4] (3C,,G,,E, z2 | 
[V:1] (3:2:5z G,D G2A | 
[V:2] z2 (3FDA, | 
[V:3] (3z G,4 A, | 
[V:4] (3B,,,G,,F, z2 | 
[V:1] (3:2:5z G,C G2A | 
[V:2] z2 (3ECA, | 
[V:3] (3z G,4 A, | 
[V:4] (3C,,G,,E, z2 | 
[V:1] (3:2:5z B,E B2c | 
[V:2] z2 (3GEC | 
[V:3] (3z G,4 C | 
[V:4] (3E,,C,G, z2 | 
[V:1] (3:2:5z EA e2d | 
[V:2] z2 (3cAd | 
[V:3] (3z E4 D | 
[V:4] (3F,,C,A, z2 | 
[V:1] (3:2:5z EA e2d | 
[V:2] z2 (3cAd | 
[V:3] (3z E4 D | 
[V:4] (3^F,,D,C z2 | 
[V:1] (3:2:5z EG e2d | 
[V:2] z2 (3BGD | 
[V:3] (3z E4 D | 
[V:4] (3G,,=F,B, z2 | 
[V:1] (3:2:5z B,D B2A | 
[V:2] z2 (3FDA, | 
[V:3] (3z B,4 A, | 
[V:4] (3G,,,G,,F, z2 | 
[V:1] (3:2:5z G,C G2A | 
[V:2] z2 (3ECA, | 
[V:3] (3z G,4 A, | 
[V:4] (3C,,G,,E, z2 | 
[V:1] (3:2:5z G,D G2A | 
[V:2] z2 (3FDA, | 
[V:3] (3z G,4 A, | 
[V:4] (3B,,,G,,F, z2 | 
[V:1] (3:2:5z G,C G2A | 
[V:2] z2 (3ECA, | 
[V:3] (3z G,4 A, | 
[V:4] (3C,,G,,E, z2 | 
[V:1] (3:2:5z B,E B2c | 
[V:2] z2 (3GEC | 
[V:3] (3z B,4 C | 
[V:4] (3E,,C,G, z2 | 
[V:1] (3:2:5z ^CF ^c2d | 
[V:2] z2 (3AFD | 
[V:3] (3z ^C4 D | 
[V:4] (3F,,=C,A, z2 | 
[V:1] (3:2:5z ^DG ^d2e | 
[V:2] z2 (3cGE | 
[V:3] (3z ^D4 E | 
[V:4] (3G,,C,_B, z2 | 
[V:1] (3:2:5z GA g2f | 
[V:2] z2 (3cAF | 
[V:3] (3z G4 F | 
[V:4] (3A,,F,C z2 | 
[V:1] (3:2:5z ^DG ^d2e | 
[V:2] z2 (3cGE | 
[V:3] (3z ^D4 E | 
[V:4] (3G,,C,C z2 | 
[V:1] (3:2:5z EA e2f | 
[V:2] z2 (3cAF | 
[V:3] (3z E4 F | 
[V:4] (3A,,F,C z2 | 
[V:1] (5:4:4^FB ^g2a | 
[V:2] z2 (3dBG | 
[V:3] (5:4:2^F4 G | 
[V:4] (3B,,G,D z2 | 
[V:1] (5:4:4^Gc ^g2a | 
[V:2] z2 (3ecA | 
[V:3] (5:4:2^G4 A | 
[V:4] (3C,=G,E z2 | 
[V:1] (5:4:4^Ad ^a2b | 
[V:2] z2 (3gdB | 
[V:3] (5:4:2^A4 B | 
[V:4] (3D,G,F z2 | 
[V:1] (3:2:5z de d'2c' | 
[V:2] z2 (3gec | 
[V:3] (3z d4 c | 
[V:4] (3E,CG z2 | 
[V:1] (3:2:5z Bc b2a | 
[V:2] z2 (3^dcA | 
[V:3] (3z B4 A | 
[V:4] (3^F,,^D,C z2 | 
[V:1] (5:4:4Ac a2g | 
[V:2] z2 (3ecG | 
[V:3] (5:4:2A4 G | 
[V:4] (3G,,E,C z2 | 
[V:1] (3:2:5z EG e2d | 
[V:2] z2 (3BGD | 
[V:3] (3z E4 D | 
[V:4] (3G,,F,B, z2 | 
[V:1] (5:4:4G,C G2A | 
[V:2] z2 (3ECA, | 
[V:3] (5:4:2G,4 A, | 
[V:4] (3C,,G,,E, z2 | 
[V:1] (5:4:4EG e2d | 
[V:2] z2 (3BGD | 
[V:3] (5:4:2E4 D | 
[V:4] (3C,,G,,F, z2 | 
[V:1] (3:2:5z G,C G2A | 
[V:2] z2 (3ECA, | 
[V:3] (3z G,4 A, | 
[V:4] (3C,,G,,E, z2 | 
[V:1] (3:2:5z EG e2d | 
[V:2] z2 (3BGD | 
[V:3] (3z E4 D | 
[V:4] (3C,,G,,F, z2 | 
[V:1] (3z CF c2- | 
[V:2] z2 (3AFE | 
[V:3] (3z C4 G | 
[V:4] (3C,,G,,G, z2 | 
[V:1] (3c CF c2- | 
[V:2] z2 (3AFE | 
[V:3] (3z C4 G | 
[V:4] (3C,,G,,G, z2 | 
[V:1] (3c CF c2- | 
[V:2] z2 (3AFE | 
[V:3] (3z C4 G | 
[V:4] (3C,,G,,G, z2 | 
[V:1] (3c CF c2 | 
[V:2] z2 (3AFE | 
[V:3] (3z C4 G | 
[V:4] (3C,,G,,G, z2 | 
[V:1] z4 | 
[V:2] z4 | 
[V:3] z2 (3E,G,C | 
[V:4] (3C,,G,,C, z2 | 
[V:1] z4 |]  
[V:2] z4 |]  
[V:3] z4 |]  
[V:4] z4 |]  


